TileServer und Tiles/svg/9/42_10.svg

<?xml version='1.0' encoding='UTF-8' standalone='no'?>
<svg xmlns="http://www.w3.org/2000/svg" width="497pt" viewBox="0 0 497 279" xmlns:xlink="http://www.w3.org/1999/xlink" height="279pt">
 <defs style="stroke:none;" overflow="visible">
  <path id="glyph0-3" d="M 9.484375 -6.265625 L 9.484375 -6.984375 L 5.359375 -6.984375 L 5.359375 -8.40625 L 4.578125 -8.40625 L 4.578125 -6.984375 L 0.546875 -6.984375 L 0.546875 -6.265625 L 4.59375 -6.265625 L 4.59375 -4.90625 L 1.5625 -4.90625 L 1.5625 -0.46875 L 2.296875 -0.46875 L 2.296875 -4.203125 L 4.59375 -4.203125 L 4.59375 0.796875 L 5.34375 0.796875 L 5.34375 -4.203125 L 7.796875 -4.203125 L 7.796875 -1.40625 C 7.796875 -1.28125 7.734375 -1.234375 7.5625 -1.21875 C 7.390625 -1.21875 6.796875 -1.21875 6.125 -1.234375 C 6.21875 -1.03125 6.34375 -0.734375 6.375 -0.515625 C 7.21875 -0.515625 7.78125 -0.515625 8.125 -0.640625 C 8.453125 -0.765625 8.5625 -0.984375 8.5625 -1.40625 L 8.5625 -4.90625 L 5.34375 -4.90625 L 5.34375 -6.265625 Z M 9.484375 -6.265625 "/>
  <path id="glyph0-2" d="M 2.703125 -4.515625 C 2.28125 -4.8125 1.453125 -5.25 0.859375 -5.515625 L 0.453125 -4.96875 C 1.0625 -4.671875 1.875 -4.203125 2.28125 -3.90625 Z M 1.40625 0.625 C 1.984375 -0.296875 2.6875 -1.515625 3.21875 -2.5625 L 2.6875 -3.0625 C 2.09375 -1.9375 1.3125 -0.625 0.78125 0.125 Z M 0.984375 -7.703125 C 1.59375 -7.359375 2.375 -6.84375 2.765625 -6.515625 L 3.21875 -7.09375 C 2.8125 -7.421875 2.015625 -7.90625 1.421875 -8.21875 Z M 6.6875 -0.625 L 6.6875 -6.6875 L 9 -6.6875 L 9 -7.421875 L 3.734375 -7.421875 L 3.734375 -6.6875 L 5.90625 -6.6875 L 5.90625 -0.625 L 3.265625 -0.625 L 3.265625 0.125 L 9.546875 0.125 L 9.546875 -0.625 Z M 6.6875 -0.625 "/>
  <path id="glyph0-1" d="M 8.5625 -5.90625 C 8.484375 -4.703125 8.3125 -3.65625 8.03125 -2.734375 C 7.75 -3.734375 7.59375 -4.78125 7.515625 -5.71875 C 7.53125 -5.78125 7.546875 -5.84375 7.5625 -5.90625 Z M 5.859375 -3.640625 L 5.125 -3.640625 L 5.125 -5.25 L 5.859375 -5.25 Z M 3.90625 -5.25 L 4.625 -5.25 L 4.625 -3.640625 L 3.90625 -3.640625 Z M 2.53125 -5.65625 C 2.453125 -4.34375 2.296875 -3.234375 2.03125 -2.328125 C 1.765625 -2.59375 1.484375 -2.875 1.21875 -3.09375 C 1.359375 -3.875 1.515625 -4.765625 1.640625 -5.65625 Z M 9.5625 -5.90625 L 9.5625 -6.546875 L 7.703125 -6.546875 C 7.8125 -7.09375 7.90625 -7.671875 7.96875 -8.265625 L 7.296875 -8.34375 C 7.15625 -6.890625 6.875 -5.46875 6.40625 -4.4375 L 6.40625 -5.828125 L 5.203125 -5.828125 L 5.203125 -6.6875 L 6.546875 -6.6875 L 6.546875 -7.3125 L 5.203125 -7.3125 L 5.203125 -8.375 L 4.546875 -8.375 L 4.546875 -7.3125 L 3.15625 -7.3125 L 3.15625 -6.6875 L 4.546875 -6.6875 L 4.546875 -5.828125 L 3.375 -5.828125 L 3.375 -3.0625 L 4.4375 -3.0625 C 4.15625 -2.265625 3.703125 -1.453125 3.21875 -0.890625 C 3.046875 -1.15625 2.796875 -1.484375 2.515625 -1.8125 C 2.875 -2.953125 3.09375 -4.40625 3.171875 -6.28125 L 2.796875 -6.328125 L 2.671875 -6.3125 L 1.734375 -6.3125 C 1.84375 -7.015625 1.953125 -7.703125 2.03125 -8.3125 L 1.40625 -8.359375 C 1.328125 -7.734375 1.234375 -7.03125 1.125 -6.3125 L 0.4375 -6.3125 L 0.4375 -5.65625 L 1.046875 -5.65625 C 0.84375 -4.421875 0.640625 -3.1875 0.453125 -2.34375 L 1.015625 -2.015625 L 1.078125 -2.375 C 1.3125 -2.15625 1.5625 -1.890625 1.796875 -1.640625 C 1.453125 -0.765625 1.015625 -0.140625 0.453125 0.265625 C 0.59375 0.375 0.765625 0.625 0.859375 0.78125 C 1.4375 0.328125 1.90625 -0.28125 2.25 -1.09375 C 2.484375 -0.8125 2.671875 -0.546875 2.796875 -0.3125 L 2.9375 -0.484375 C 3.046875 -0.328125 3.171875 -0.125 3.234375 0.03125 C 3.734375 -0.4375 4.1875 -1.1875 4.546875 -2 L 4.546875 0.765625 L 5.203125 0.765625 L 5.203125 -1.984375 C 5.546875 -1.578125 5.9375 -1.0625 6.109375 -0.796875 L 6.515625 -1.296875 C 6.3125 -1.546875 5.5 -2.453125 5.203125 -2.75 L 5.203125 -3.0625 L 6.40625 -3.0625 L 6.40625 -3.890625 C 6.515625 -3.765625 6.640625 -3.625 6.703125 -3.546875 C 6.859375 -3.8125 7 -4.125 7.125 -4.453125 C 7.234375 -3.609375 7.40625 -2.703125 7.6875 -1.84375 C 7.28125 -0.953125 6.71875 -0.234375 5.953125 0.296875 C 6.09375 0.40625 6.3125 0.640625 6.40625 0.765625 C 7.078125 0.28125 7.59375 -0.328125 7.984375 -1.046875 C 8.296875 -0.375 8.703125 0.25 9.21875 0.734375 C 9.3125 0.5625 9.5625 0.28125 9.6875 0.15625 C 9.09375 -0.34375 8.65625 -1.03125 8.34375 -1.8125 C 8.796875 -2.9375 9.046875 -4.3125 9.15625 -5.90625 Z M 9.5625 -5.90625 "/>
  <path id="glyph0-0" d="M 1 1.203125 L 9 1.203125 L 9 -8.796875 L 1 -8.796875 Z M 5 -4.203125 L 1.8125 -8.296875 L 8.1875 -8.296875 Z M 5.3125 -3.796875 L 8.5 -7.890625 L 8.5 0.296875 Z M 1.8125 0.703125 L 5 -3.390625 L 8.1875 0.703125 Z M 1.5 -7.890625 L 4.6875 -3.796875 L 1.5 0.296875 Z M 1.5 -7.890625 "/>
 </defs>
 <image width="497" xlink:href="svg/9/42_10.jpg" height="279"/>
 <g>
  <path d="M 259.71875 201.914062 C 259.640625 203.117188 259.46875 204.164062 259.1875 205.085938 C 258.90625 204.085938 258.75 203.039062 258.671875 202.101562 C 258.6875 202.039062 258.703125 201.976562 258.71875 201.914062 Z M 257.015625 204.179688 L 256.28125 204.179688 L 256.28125 202.570312 L 257.015625 202.570312 Z M 255.0625 202.570312 L 255.78125 202.570312 L 255.78125 204.179688 L 255.0625 204.179688 Z M 253.6875 202.164062 C 253.609375 203.476562 253.453125 204.585938 253.1875 205.492188 C 252.921875 205.226562 252.640625 204.945312 252.375 204.726562 C 252.515625 203.945312 252.671875 203.054688 252.796875 202.164062 Z M 260.71875 201.914062 L 260.71875 201.273438 L 258.859375 201.273438 C 258.96875 200.726562 259.0625 200.148438 259.125 199.554688 L 258.453125 199.476562 C 258.3125 200.929688 258.03125 202.351562 257.5625 203.382812 L 257.5625 201.992188 L 256.359375 201.992188 L 256.359375 201.132812 L 257.703125 201.132812 L 257.703125 200.507812 L 256.359375 200.507812 L 256.359375 199.445312 L 255.703125 199.445312 L 255.703125 200.507812 L 254.3125 200.507812 L 254.3125 201.132812 L 255.703125 201.132812 L 255.703125 201.992188 L 254.53125 201.992188 L 254.53125 204.757812 L 255.59375 204.757812 C 255.3125 205.554688 254.859375 206.367188 254.375 206.929688 C 254.203125 206.664062 253.953125 206.335938 253.671875 206.007812 C 254.03125 204.867188 254.25 203.414062 254.328125 201.539062 L 253.953125 201.492188 L 253.828125 201.507812 L 252.890625 201.507812 C 253 200.804688 253.109375 200.117188 253.1875 199.507812 L 252.5625 199.460938 C 252.484375 200.085938 252.390625 200.789062 252.28125 201.507812 L 251.59375 201.507812 L 251.59375 202.164062 L 252.203125 202.164062 C 252 203.398438 251.796875 204.632812 251.609375 205.476562 L 252.171875 205.804688 L 252.234375 205.445312 C 252.46875 205.664062 252.71875 205.929688 252.953125 206.179688 C 252.609375 207.054688 252.171875 207.679688 251.609375 208.085938 C 251.75 208.195312 251.921875 208.445312 252.015625 208.601562 C 252.59375 208.148438 253.0625 207.539062 253.40625 206.726562 C 253.640625 207.007812 253.828125 207.273438 253.953125 207.507812 L 254.09375 207.335938 C 254.203125 207.492188 254.328125 207.695312 254.390625 207.851562 C 254.890625 207.382812 255.34375 206.632812 255.703125 205.820312 L 255.703125 208.585938 L 256.359375 208.585938 L 256.359375 205.835938 C 256.703125 206.242188 257.09375 206.757812 257.265625 207.023438 L 257.671875 206.523438 C 257.46875 206.273438 256.65625 205.367188 256.359375 205.070312 L 256.359375 204.757812 L 257.5625 204.757812 L 257.5625 203.929688 C 257.671875 204.054688 257.796875 204.195312 257.859375 204.273438 C 258.015625 204.007812 258.15625 203.695312 258.28125 203.367188 C 258.390625 204.210938 258.5625 205.117188 258.84375 205.976562 C 258.4375 206.867188 257.875 207.585938 257.109375 208.117188 C 257.25 208.226562 257.46875 208.460938 257.5625 208.585938 C 258.234375 208.101562 258.75 207.492188 259.140625 206.773438 C 259.453125 207.445312 259.859375 208.070312 260.375 208.554688 C 260.46875 208.382812 260.71875 208.101562 260.84375 207.976562 C 260.25 207.476562 259.8125 206.789062 259.5 206.007812 C 259.953125 204.882812 260.203125 203.507812 260.3125 201.914062 Z M 260.71875 201.914062 " transform=" rotate(  340 266.157 204.822) " style="fill:none;stroke-width:3;stroke-linecap:butt;stroke-linejoin:round;stroke:rgb(100%,100%,100%);stroke-opacity:0.6;stroke-miterlimit:10;"/>
  <path d="M 263.859375 203.304688 C 263.4375 203.007812 262.609375 202.570312 262.015625 202.304688 L 261.609375 202.851562 C 262.21875 203.148438 263.03125 203.617188 263.4375 203.914062 Z M 262.5625 208.445312 C 263.140625 207.523438 263.84375 206.304688 264.375 205.257812 L 263.84375 204.757812 C 263.25 205.882812 262.46875 207.195312 261.9375 207.945312 Z M 262.140625 200.117188 C 262.75 200.460938 263.53125 200.976562 263.921875 201.304688 L 264.375 200.726562 C 263.96875 200.398438 263.171875 199.914062 262.578125 199.601562 Z M 267.84375 207.195312 L 267.84375 201.132812 L 270.15625 201.132812 L 270.15625 200.398438 L 264.890625 200.398438 L 264.890625 201.132812 L 267.0625 201.132812 L 267.0625 207.195312 L 264.421875 207.195312 L 264.421875 207.945312 L 270.703125 207.945312 L 270.703125 207.195312 Z M 267.84375 207.195312 " transform=" rotate(  340 266.157 204.822) " style="fill:none;stroke-width:3;stroke-linecap:butt;stroke-linejoin:round;stroke:rgb(100%,100%,100%);stroke-opacity:0.6;stroke-miterlimit:10;"/>
  <path d="M 280.640625 201.554688 L 280.640625 200.835938 L 276.515625 200.835938 L 276.515625 199.414062 L 275.734375 199.414062 L 275.734375 200.835938 L 271.703125 200.835938 L 271.703125 201.554688 L 275.75 201.554688 L 275.75 202.914062 L 272.71875 202.914062 L 272.71875 207.351562 L 273.453125 207.351562 L 273.453125 203.617188 L 275.75 203.617188 L 275.75 208.617188 L 276.5 208.617188 L 276.5 203.617188 L 278.953125 203.617188 L 278.953125 206.414062 C 278.953125 206.539062 278.890625 206.585938 278.71875 206.601562 C 278.546875 206.601562 277.953125 206.601562 277.28125 206.585938 C 277.375 206.789062 277.5 207.085938 277.53125 207.304688 C 278.375 207.304688 278.9375 207.304688 279.28125 207.179688 C 279.609375 207.054688 279.71875 206.835938 279.71875 206.414062 L 279.71875 202.914062 L 276.5 202.914062 L 276.5 201.554688 Z M 280.640625 201.554688 " transform=" rotate(  340 266.157 204.822) " style="fill:none;stroke-width:3;stroke-linecap:butt;stroke-linejoin:round;stroke:rgb(100%,100%,100%);stroke-opacity:0.6;stroke-miterlimit:10;"/>
  <g transform=" rotate(  340 266.157 204.822) " style="fill:rgb(13.333333%,13.333333%,13.333333%);fill-opacity:1;">
   <use xlink:href="#glyph0-1" y="207.821944" x="251.15707"/>
   <use xlink:href="#glyph0-2" y="207.821944" x="261.15707"/>
   <use xlink:href="#glyph0-3" y="207.821944" x="271.15707"/>
  </g>
 </g>
</svg>

<svg xmlns="http://www.w3.org/2000/svg" xmlns:xlink="http://www.w3.org/1999/xlink" viewBox="0 0 497 279"> <defs overflow="visible" style="stroke:none">  <path id="c" d="M9.5-6.3V-7H5.4v-1.4h-.8V-7h-4v.7h3.9v1.4H1.6v4.4h.7v-3.7h2.3v5h.7v-5h2.5v2.8c0 .1 0 .2-.2.2H6l.4.7L8-.6c.5-.2.6-.4.6-.8V-5H5.3v-1.3Zm0 0"/>  <path id="b" d="M2.7-4.5a13.4 13.4 0 0 0-1.8-1L.5-5l1.8 1ZM1.4.6C2-.3 2.7-1.5 3.2-2.6L2.7-3A33 33 0 0 1 .7.1ZM1-7.7a14 14 0 0 1 1.8 1.2l.4-.6a13.3 13.3 0 0 0-1.8-1.1Zm5.7 7v-5.9H9v-.8H3.7v.7H6v6H3.3v.9h6.2v-.8Zm0 .1"/>  <path id="a" d="M8.6-6A14 14 0 0 1 8-2.6c-.3-1.1-.4-2.1-.5-3.1V-6ZM5.9-3.5H5v-1.7h1Zm-2-1.7h.7v1.6H4Zm-1.4-.6c0 1.5-.2 2.6-.5 3.5l-.8-.8.4-2.6Zm7-.1v-.6H7.8L8-8.3h-.7c-.1 1.3-.4 2.8-.9 3.9v-1.4H5.2v-.9h1.3v-.6H5.2v-1h-.7v.9H3.2v.7h1.3v.9H3.4v2.7h1A7.1 7.1 0 0 1 3.2-.9a9 9 0 0 0-.7-1c.5-.9.6-2.4.7-4.3H1.7L2-8.3h-.6l-.3 1.9H.4v.7H1L.5-2.3 1-2v-.4l.9.8C1.5-.8 1-.1.5.3l.4.5c.5-.5 1-1 1.4-1.9l.5.8.1-.2a3 3 0 0 1 .3.5c.5-.4 1-1.2 1.3-2V.8h.7V-2c.3.4.7 1 1 1.2l.2-.5-1.2-1.4v-.4h1.2v-.8l.3.4a6 6 0 0 0 .4-1l.6 2.7C7.3-1 6.7-.2 6 .3l.4.5C7.1.3 7.6-.3 8-1c.3.6.7 1.3 1.2 1.7l.5-.5c-.7-.5-1-1.2-1.4-2C8.8-3 9-4.3 9.2-6Zm.1-.1"/>  <path d="M1 1.2h8v-10H1Zm4-5.4L1.8-8.3h6.4Zm.3.4 3.2-4v8ZM1.8.7l3.2-4L8.2.6Zm-.3-8.6 3.2 4.1L1.5.3Zm0 0"/> </defs> <image xlink:href="svg/9/42_10.jpg" width="497" height="279"/> <path d="M259.7 202a14 14 0 0 1-.5 3c-.3-1-.4-2-.5-2.8v-.3Zm-2.7 2.1h-.7v-1.5h.7Zm-2-1.5h.9v1.6h-.9Zm-1.2-.4c-.1 1.3-.3 2.4-.6 3.3l-.8-.8.4-2.5Zm6.9-.3v-.6H259v-1.7l-.5-.1c-.2 1.4-.5 2.9-1 3.9V202h-1v-1h1.2v-.5h-1.3v-1h-.7v.9h-1.4v.7h1.4v.9h-1.2v2.8h1a7.1 7.1 0 0 1-1 2.1 9 9 0 0 0-.8-.9c.3-1 .6-2.6.6-4.5h-1.5l.5-2h-.7l-.3 2h-.7v.7h.6a70 70 0 0 1-.6 3.3l.6.3v-.4l.8.8c-.4.8-.8 1.5-1.4 1.8l.4.6c.6-.5 1-1 1.4-1.9l.6.8v-.2a3 3 0 0 1 .5.7c.4-.6.9-1.4 1.2-2.1v2.6h.7v-2.7l.9 1.2.4-.5-1.3-1.4v-.3h1.2v-.9c0 .2.2.3.3.4a6 6 0 0 0 .4-1c0 1.1.3 1.9.5 2.7-.4.9-1 1.6-1.7 2l.5.6c.6-.6 1.1-1.1 1.4-1.8.5.6 1 1.2 1.4 1.8 0-.2.3-.6.4-.6-.6-.5-1-1.2-1.3-2 .5-1 .7-2.5.8-4ZM263.9 203.3a13.4 13.4 0 0 0-1.9-1l-.4.6c.6.1 1.4.7 1.8 1Zm-1.3 5.1 1.8-3.1-.6-.5a33 33 0 0 1-1.8 3.1Zm-.6-8.3a14 14 0 0 1 2 1.2l.4-.6a13.3 13.3 0 0 0-1.8-1.1Zm5.8 7.1v-6h2.4v-.9h-5.3v.8h2.1v6.1h-2.6v.7h6.3v-.7Zm12.8-5.6v-.8h-4v-1.4h-1v1.4h-3.9v.8h4v1.3h-2.9v4.5h.7v-3.8h2.3v5h.6v-5h2.6v2.8c0 .1-.1.2-.3.2h-1.4l.2.7 1.8-.1c.3-.2.4-.4.4-.8V203h-3.2v-1.4Zm0 0" style="fill:none;stroke-width:3;stroke-linecap:butt;stroke-linejoin:round;stroke:#fff;stroke-opacity:.6;stroke-miterlimit:10" transform=" rotate(  340 266.157 204.822) "/> <g style="fill:#222;fill-opacity:1" transform=" rotate(  340 266.157 204.822) ">  <use xlink:href="#a" x="251.2" y="207.8"/>  <use xlink:href="#b" x="261.2" y="207.8"/>  <use xlink:href="#c" x="271.2" y="207.8"/> </g></svg>
